svgs/light/square-arrow-down.svg

<svg xmlns="http://www.w3.org/2000/svg" viewBox="0 0 448 512"><!-- Font Awesome Pro 6.0.0-alpha2 by @fontawesome - https://fontawesome.com License - https://fontawesome.com/license (Commercial License) --><path d="M384 32H64C28.654 32 0 60.654 0 96V416C0 451.346 28.654 480 64 480H384C419.346 480 448 451.346 448 416V96C448 60.654 419.346 32 384 32ZM416 416C416 433.645 401.645 448 384 448H64C46.355 448 32 433.645 32 416V96C32 78.355 46.355 64 64 64H384C401.645 64 416 78.355 416 96V416ZM308.688 260.688L240 329.375V144C240 135.156 232.844 128 224 128S208 135.156 208 144V329.375L139.312 260.688C133.062 254.438 122.937 254.438 116.688 260.688S110.438 277.063 116.688 283.312L212.688 379.312C215.812 382.438 219.906 384 224 384S232.188 382.438 235.312 379.312L331.312 283.312C337.562 277.062 337.562 266.937 331.312 260.688S314.938 254.438 308.688 260.688Z"/></svg>

<svg xmlns="http://www.w3.org/2000/svg" viewBox="0 0 448 512"><!--! Font Awesome Pro 6.3.0 by @fontawesome - https://fontawesome.com License - https://fontawesome.com/license (Commercial License) Copyright 2023 Fonticons, Inc. --><path d="M384 32H64C28.65 32 0 60.65 0 96v320c0 35.35 28.65 64 64 64h320c35.35 0 64-28.65 64-64V96C448 60.65 419.3 32 384 32zM416 416c0 17.64-14.36 32-32 32H64c-17.64 0-32-14.36-32-32V96c0-17.64 14.36-32 32-32h320c17.64 0 32 14.36 32 32V416zM308.7 260.7L240 329.4V144c0-8.844-7.154-16-15.1-16S208 135.2 208 144v185.4L139.3 260.7c-6.25-6.25-16.38-6.25-22.62 0s-6.25 16.38 0 22.62l96 96C215.8 382.4 219.9 384 224 384s8.184-1.562 11.31-4.688l96-96c6.25-6.25 6.25-16.38 0-22.62S314.9 254.4 308.7 260.7z"/></svg>
